src/assets/logoipsum-custom-logo-icon.svg

<svg data-logo="logo" xmlns="http://www.w3.org/2000/svg" viewBox="0 0 67 40">
            <g id="logogram" transform="translate(0, 0) rotate(0)"><path d="M0.25 20C0.25 8.9543 9.2043 0 20.25 0H46.5C57.5458 0 66.5 8.9543 66.5 20V40H20.25C9.2043 40 0.25 31.0458 0.25 20Z" fill="#FF291A"/><path d="M46.5 7.5H20.25C13.3464 7.5 7.75 13.0964 7.75 20C7.75 26.9036 13.3464 32.5 20.25 32.5H46.5C53.4036 32.5 59 26.9036 59 20C59 13.0964 53.4036 7.5 46.5 7.5Z" fill="#F0D8BC"/><path d="M20.25 26.25C23.7018 26.25 26.5 23.4518 26.5 20C26.5 16.5482 23.7018 13.75 20.25 13.75C16.7982 13.75 14 16.5482 14 20C14 23.4518 16.7982 26.25 20.25 26.25Z" fill="#000000"/><path d="M17.75 18.75C18.4404 18.75 19 18.1904 19 17.5C19 16.8096 18.4404 16.25 17.75 16.25C17.0596 16.25 16.5 16.8096 16.5 17.5C16.5 18.1904 17.0596 18.75 17.75 18.75Z" fill="#ffffff"/><path d="M47.75 26.25C51.2018 26.25 54 23.4518 54 20C54 16.5482 51.2018 13.75 47.75 13.75C44.2982 13.75 41.5 16.5482 41.5 20C41.5 23.4518 44.2982 26.25 47.75 26.25Z" fill="#000000"/><path d="M45.25 18.75C45.9404 18.75 46.5 18.1904 46.5 17.5C46.5 16.8096 45.9404 16.25 45.25 16.25C44.5596 16.25 44 16.8096 44 17.5C44 18.1904 44.5596 18.75 45.25 18.75Z" fill="#ffffff"/></g>
            <g id="logotype" transform="translate(67, 20)"></g>
            
          </svg>

<?xml version="1.0" encoding="UTF-8"?>
<svg xmlns="http://www.w3.org/2000/svg" version="1.1" viewBox="0 0 67 40">
  <defs>
    <style>
      .cls-1 {
        fill: #f0d8bc;
      }

      .cls-2 {
        fill: #fff;
      }

      .cls-3 {
        fill: #dd3555;
      }
    </style>
  </defs>
  <!-- Generator: Adobe Illustrator 28.6.0, SVG Export Plug-In . SVG Version: 1.2.0 Build 709)  -->
  <g>
    <g id="Livello_1">
      <g id="logogram">
        <path class="cls-3" d="M.2,20C.2,9,9.2,0,20.2,0h26.2C57.5,0,66.5,9,66.5,20v20H20.2C9.2,40,.2,31,.2,20Z"/>
        <path class="cls-1" d="M46.5,7.5h-26.2c-6.9,0-12.5,5.6-12.5,12.5s5.6,12.5,12.5,12.5h26.2c6.9,0,12.5-5.6,12.5-12.5s-5.6-12.5-12.5-12.5Z"/>
        <path d="M20.2,26.3c3.5,0,6.2-2.8,6.2-6.2s-2.8-6.2-6.2-6.2-6.2,2.8-6.2,6.2,2.8,6.2,6.2,6.2Z"/>
        <path class="cls-2" d="M17.8,18.8c.7,0,1.2-.6,1.2-1.2s-.6-1.2-1.2-1.2-1.2.6-1.2,1.2.6,1.2,1.2,1.2Z"/>
        <path d="M47.8,26.3c3.5,0,6.2-2.8,6.2-6.2s-2.8-6.2-6.2-6.2-6.2,2.8-6.2,6.2,2.8,6.2,6.2,6.2Z"/>
        <path class="cls-2" d="M45.2,18.8c.7,0,1.2-.6,1.2-1.2s-.6-1.2-1.2-1.2-1.2.6-1.2,1.2.6,1.2,1.2,1.2Z"/>
      </g>
    </g>
  </g>
</svg>
